X: 11
T: The Ragged Jacket
R: reel
Z: 2014 John Chambers <jc:trillian.mit.edu>
S: The Gentleman's Magazine v.20, December 1750, p.563
N: Filled in missing 2nd beam in bar 8, as in bar 10.
M: C|
L: 1/8
K: G
% - - - - - - - - - - - - - - - - - - - - - - - - - - - - -
[|\
gecA d2d2 | edcB A2A2 |\
GABG gefe | dBcA B2d2 |\
GABG gfed | ecBA G2G2 |]
[|\
EFGD G2G2 | ded(c/B/) A2A2 |\
EFGD G2G2 | ded(c/B/) A2A2 |\
edcB cdef | gdab g2g2 |]
% - - - - - - - - - - Dance description - - - - - - - - - -
%%begintext align
%%   Hands 4 round and turn your partner, .| 1st couple set, cast off, and turn,
%% :| lead thro' the third Co. cast up and turn .|| . Set 4 at top, and right and left.
%%endtext

%%sep 1 1 500
%%sep 1 1 500
